file/htc.svg

<svg clip-rule="evenodd" fill-rule="evenodd" stroke-linejoin="round" stroke-miterlimit="1.41421" viewBox="0 0 560 400" xmlns="http://www.w3.org/2000/svg"><path d="m345.318 189.959c-18.317.118-35.668.266-40.508-.164-9.785-.852-16.325-7.254-17.083-16.675-.513-6.183-.513-11.304-.027-16.179.888-9.174 8.561-17.907 17.11-18.329 3.065-.165 11.259-.146 26.104-.082l43.196.082v-17.917s-34.407-.036-44.752-.082c-13.884-.063-20.87-.073-25.298.082-9.74.375-17.898 3.842-24.236 10.281-6.01 6.082-9.595 15.758-10.124 25.554-.303 5.286-.402 12.19 0 16.298.996 10.536 4.407 18.805 10.124 24.594 6.108 6.219 15.411 10.162 24.246 10.279 7.254.094 70.04 0 70.04 0v-17.906c.001 0-19.067.071-28.792.164zm-299.429-97.148v32.567c0 .047.028.057.055.037 2.843-2.121 8.515-4.445 16.298-4.774 5.524-.228 29.056-.338 35.028 0 6.869.366 17.36 3.274 24.238 10.271 6.595 6.686 9.996 14.954 10.125 24.594.047 4.135 0 52.195-.002 52.194h-18.008s.182-48.244.008-51.783c-.53-9.612-7.271-16.747-16.398-17.377-6.649-.448-27.841-.613-34.902-.01-8.808.771-15.712 7.921-16.426 17.021-.401 5.123-.045 52.15-.045 52.15h-17.971v-114.89zm207.659 28.845v17.899h-42.62v67.835h-17.99v-67.836h-42.621v-17.898z" fill="#8cc751" fill-rule="nonzero" transform="matrix(1.0398 0 0 1.0398 71.0011 43.7423)"/></svg>

<?xml version="1.0" encoding="UTF-8" standalone="no"?>
<!DOCTYPE svg PUBLIC "-//W3C//DTD SVG 1.1//EN" "http://www.w3.org/Graphics/SVG/1.1/DTD/svg11.dtd">
<svg width="100%" height="100%" viewBox="0 0 560 400" version="1.1" xmlns="http://www.w3.org/2000/svg" xmlns:xlink="http://www.w3.org/1999/xlink" xml:space="preserve" xmlns:serif="http://www.serif.com/" style="fill-rule:evenodd;clip-rule:evenodd;stroke-linejoin:round;stroke-miterlimit:1.41421;">
    <g id="c" transform="matrix(1.0398,0,0,1.0398,71.0011,43.7423)">
        <path d="M345.318,189.959C327.001,190.077 309.65,190.225 304.81,189.795C295.025,188.943 288.485,182.541 287.727,173.12C287.214,166.937 287.214,161.816 287.7,156.941C288.588,147.767 296.261,139.034 304.81,138.612C307.875,138.447 316.069,138.466 330.914,138.53L374.11,138.612L374.11,120.695C374.11,120.695 339.703,120.659 329.358,120.613C315.474,120.55 308.488,120.54 304.06,120.695C294.32,121.07 286.162,124.537 279.824,130.976C273.814,137.058 270.229,146.734 269.7,156.53C269.397,161.816 269.298,168.72 269.7,172.828C270.696,183.364 274.107,191.633 279.824,197.422C285.932,203.641 295.235,207.584 304.07,207.701C311.324,207.795 374.11,207.701 374.11,207.701L374.11,189.795C374.111,189.795 355.043,189.866 345.318,189.959ZM45.889,92.811L45.889,125.378C45.889,125.425 45.917,125.435 45.944,125.415C48.787,123.294 54.459,120.97 62.242,120.641C67.766,120.413 91.298,120.303 97.27,120.641C104.139,121.007 114.63,123.915 121.508,130.912C128.103,137.598 131.504,145.866 131.633,155.506C131.68,159.641 131.633,207.701 131.631,207.7L113.623,207.7C113.623,207.7 113.805,159.456 113.631,155.917C113.101,146.305 106.36,139.17 97.233,138.54C90.584,138.092 69.392,137.927 62.331,138.53C53.523,139.301 46.619,146.451 45.905,155.551C45.504,160.674 45.86,207.701 45.86,207.701L27.889,207.701L27.889,92.811L45.889,92.811ZM253.548,121.656L253.548,139.555L210.928,139.555L210.928,207.39L192.938,207.39L192.938,139.554L150.317,139.554L150.317,121.656L253.548,121.656Z" style="fill:rgb(140,199,81);fill-rule:nonzero;"/>
    </g>
</svg>
